includes/public/svg/flags/gum.svg

<?xml version="1.0" encoding="UTF-8"?>
<svg version="1.0" xmlns="http://www.w3.org/2000/svg" width="820" height="440">
<rect fill="#c62139" width="820" height="440"/>
<rect fill="#00297b" width="780" height="400" x="20" y="20"/>
<g>
<path fill="#c62139" d="M410.25782,100.00041C410.25782,100.00041 330.00038,154.71073 330.00038,219.22153C330.00038,283.74266 410.25782,340.00123 410.25782,340.00123C410.25782,340.00123 490.00057,288.38227 490.00057,219.22153C490.00057,150.06596 410.25782,100.00041 410.25782,100.00041"/>
<path fill="#66afeb" d="M477.92277,240.56171C479.68326,233.69776 480.68341,226.5706 480.68341,219.22153C480.68341,157.29117 410.25782,111.35948 410.25782,111.35948C410.25782,111.35948 338.80284,158.84459 338.80284,219.22153C338.80284,226.47255 339.82054,233.53777 341.61613,240.38108L477.92277,240.56171"/>
<path fill="#007bde" d="M409.67295,328.12609C409.67295,328.12609 464.90916,291.54588 477.89938,240.38108L341.56349,240.38108C354.75257,290.56016 409.67295,328.12609 409.67295,328.12609"/>
<path fill="#9c8431" d="M480.33833,226.4519C468.25468,235.06023 400.2505,230.92637 400.2505,230.92637L396.44877,240.56171L477.91692,240.56171C478.25615,239.24053 478.56615,237.91934 478.84689,236.58268L480.33833,226.4519"/>
<g fill="#fff100">
<path d="M406.07592,287.35526C405.04068,280.14553 373.23483,272.42488 356.35514,273.05967C361.62492,281.32737 367.59656,288.8932 373.6033,295.6178C382.17767,286.41598 406.41515,289.73442 406.07592,287.35526"/>
<path d="M470.45384,260.54973C466.4123,260.69424 459.07789,261.33935 454.05376,263.9559C446.80708,267.73882 430.58246,271.87267 423.32993,269.80316C416.08324,267.73882 404.68975,274.27763 406.07592,275.65042C408.3745,277.94701 425.05533,275.3098 425.05533,290.106C425.05533,302.49207 405.73084,296.99059 398.13323,302.15146C393.5536,305.25314 390.36015,308.62318 388.54703,310.79074C400.40842,321.7679 409.69634,328.12609 409.69634,328.12609C409.69634,328.12609 431.71713,313.54148 451.21708,289.92537L460.38802,277.75605C464.08448,272.34231 467.51188,266.59827 470.45384,260.54973"/>
</g>
<g fill="#009270">
<path d="M405.85951,165.16664C405.85951,165.16664 394.85205,158.71556 379.83814,161.80692C364.82422,164.90344 361.58399,174.31686 361.58399,174.31686L366.63151,171.99963L366.76019,174.06397L371.29302,171.2255L371.42169,173.28984L375.3053,169.6824L375.94283,171.99963L379.44041,168.90311L379.70361,170.58039L385.39451,166.96779L385.39451,169.29017L389.92734,167.22067L389.54132,169.4192L398.08645,167.8761C398.08645,167.8761 377.89048,174.58006 375.3053,190.70776L379.18307,186.0733L379.57494,188.25635L382.03144,183.35869L382.68066,185.29401L384.87981,180.77826L385.52319,183.48255L388.88626,178.57973L389.14946,181.42337L393.02722,176.13348L393.02722,178.70359L397.17403,174.18783L397.04535,177.55272C397.04535,177.55272 401.05764,174.18783 402.34438,174.18783L397.56005,180.38603L399.11584,180.90212C399.11584,180.90212 395.74692,183.61157 395.48957,184.12766C395.23222,184.63858 397.69457,184.12766 397.69457,184.12766C397.69457,184.12766 394.71168,187.21902 394.583,188.12733C394.45433,189.03564 396.5248,188.12733 396.5248,188.12733C396.5248,188.12733 393.80511,191.60575 393.41909,192.90629C393.02722,194.1965 394.84034,193.15917 394.84034,193.15917C394.84034,193.15917 393.16174,197.28786 393.02722,198.44906C392.89854,199.59993 394.96902,198.18585 394.96902,198.18585L396.13879,205.28204L398.20926,196.77694L399.50185,198.71226L399.50185,192.64308L400.66576,193.6701L400.5371,189.68075L402.08704,191.22385L401.31499,186.32103L402.9936,188.24603L402.73625,184.12766L404.41486,185.8101L404.41486,180.38603L405.97065,181.79495L406.228,178.0688L408.04112,178.96679C408.04112,178.96679 408.29847,174.45104 410.3748,174.58006C412.43943,174.69876 415.03046,176.89729 413.99522,177.9243L415.80835,177.4237L415.42233,181.79495L417.10094,180.76794L416.84359,183.99348L418.26485,183.34837L417.75016,187.4719L419.43462,186.45521L419.55744,191.47157L421.4934,190.06265L421.36472,195.98732L423.30653,194.44939L423.30653,199.34705L425.11967,198.06715L427.06732,202.83579L426.67546,195.7396L428.10257,196.89564L425.50568,191.86895L427.45334,191.60575L425.37701,188.24603L427.31882,188.39053L424.4763,185.03081L426.41226,184.64891L422.13676,181.54723L424.47045,180.64924L420.06629,177.8056L421.75075,177.16049L418.65088,173.93495L421.88527,175.22517L422.91466,173.16082L426.79827,176.2625L426.79827,173.16082L430.16134,177.8056L430.55322,174.96196L433.14424,178.57973L433.65894,176.90761L435.47207,180.51505L436.37279,177.81592L438.18591,181.68657L438.70061,178.96679L440.38507,183.22967L441.94086,181.54723L442.71875,185.93912L444.26284,184.25668L445.6841,188.12733L447.49723,186.70809L449.05302,191.09999C449.05302,191.09999 453.32265,167.61289 416.69152,167.22067L405.81858,165.16664"/>
<path d="M389.03248,144.25998L391.0971,146.83009L390.06187,147.61455L393.55946,149.54987L392.78156,150.96395L396.27916,152.25416L394.98072,153.2915L398.09228,155.08748L396.02181,155.74291L399.7709,157.54405L399.25621,159.21617L402.49059,159.99546L401.06933,161.15149L404.81843,164.12931L409.09391,167.09165L412.07096,166.06463L410.9012,160.37736C410.9012,160.37736 398.60698,143.60455 389.03248,144.24966"/>
<path d="M400.29144,128.00326L401.71855,131.3475L399.7709,131.73973L404.17505,136.12646L400.67747,136.25548L404.95295,139.60489L402.87662,140.26031L406.76609,144.13096L404.68975,145.15797L408.70204,149.15764L405.98819,150.18466L410.52102,154.31851L407.93,154.45269L410.64385,157.92595L408.18735,158.70524C408.18735,158.70524 411.1644,164.24801 411.02986,166.57556L416.0774,166.82844C416.0774,166.82844 416.85528,151.86194 416.21192,149.92661L414.91348,150.82976L415.29951,145.41086L413.3577,146.57721L412.97752,140.12613L411.02986,142.18532L410.52102,135.86326L409.09391,138.06179L407.6668,131.86359L406.11686,133.79891L404.68975,129.8044L403.52584,131.3475L400.29144,127.99294"/>
<path d="M413.36355,165.67757C414.79066,156.64606 424.24235,143.48585 441.97595,142.96977L437.95781,145.03411L440.2915,146.06629L435.62999,147.74873L437.95781,149.15764L432.39559,149.54987L435.23812,151.48519L431.103,152.00128L427.86276,152.64639L430.19058,154.83459L425.52909,155.34552L428.51198,156.89894C428.51198,156.89894 421.13078,159.47937 420.61608,160.25866C420.61608,160.25866 445.47354,153.9366 451.55631,165.66725L446.76028,163.6029L447.15216,165.80143L443.78908,163.35002L444.30378,165.15632L440.81204,163.35002L441.32674,165.53823L437.70046,163.47388L438.47836,165.41953L433.81685,163.221L434.59474,165.28534L430.58246,163.99513L430.97433,166.18333L426.9562,165.93045L427.34806,168.51088L414.91933,168.24768L413.36355,165.66725"/>
</g>
<g fill="#7b4800">
<path d="M409.56767,173.46015L412.15869,173.28984C410.94798,197.89684 412.08262,233.17651 415.43403,246.23866C421.12493,268.42521 437.71802,276.9716 441.66597,279.09788C443.90606,280.2952 443.04628,285.28575 438.5544,284.94514C434.0742,284.59936 418.41693,273.06999 413.01262,252.42653C405.77178,224.72818 409.28692,176.34508 409.56767,173.46015"/>
<circle cx="413.755" cy="168.129" r="2.926"/>
<circle cx="409.094" cy="167.092" r="2.739"/>
<circle cx="409.094" cy="171.871" r="2.558"/>
<circle cx="412.586" cy="170.58" r="2.739"/>
</g>
<g fill="#7b4800">
<path fill="#000" d="M384.64001,257.16421L387.56442,257.16421L387.56442,225.68294L384.64001,225.68294L384.64001,257.16421z"/>
<path d="M394.13849,263.0992C394.13849,263.0992 392.93949,263.3108 391.03277,263.55336L391.03277,261.09678L389.09097,261.09678L389.09097,263.76495C387.10236,263.96623 384.69266,264.13137 382.16596,264.13137C379.48136,264.13137 376.77336,263.93526 374.53911,263.70818L374.53911,261.16388L372.39844,261.16388L372.39844,263.46562C370.55022,263.23338 369.35706,263.03211 369.35706,263.03211C369.35706,263.03211 368.77218,266.25765 381.97881,266.25765C395.17957,266.25765 394.14434,263.0992 394.14434,263.0992"/>
<path d="M381.60448,257.07131C392.30781,257.07131 401.28575,255.3579 401.28575,255.3579C401.28575,255.3579 402.66021,262.23217 381.60448,262.23217C360.54874,262.23217 362.27415,256.39008 362.27415,256.39008C362.27415,256.39008 370.90699,257.07131 381.60448,257.07131"/>
<path fill="#fff" d="M372.62655,227.47892C372.62655,227.47892 389.19624,233.67711 395.75861,255.3579C395.75861,255.3579 380.56924,252.26655 371.93638,255.70368L367.10526,255.70368C367.10526,255.69293 375.39303,243.65823 372.62655,227.47892"/>
</g>
<g fill="#c62139">
<path d="M374.97192,211.16026L371.90129,211.16026C371.66149,209.83908 371.08246,208.91013 370.16419,208.3992C369.6495,208.10503 369.08216,207.96569 368.45634,207.96569C367.24564,207.96569 366.26304,208.53855 365.49099,209.72038C364.7131,210.88674 364.32708,212.66208 364.32708,215.01027C364.32708,217.38943 364.74819,219.06155 365.58458,220.06276C366.42095,221.03816 367.37431,221.5336 368.44465,221.5336C369.49158,221.5336 370.34551,221.14654 371.01812,220.36209C371.68489,219.58796 372.09431,218.56094 372.25807,217.28621L368.79557,217.28621L368.79557,214.07099L375.01871,214.07099L375.01871,224.42369L372.95408,224.42369L372.63825,222.01356C372.03582,222.9322 371.49773,223.5773 371.01812,223.95921C370.19344,224.61464 369.1816,224.93977 367.97674,224.93977C365.99984,224.93977 364.37387,224.0521 363.11637,222.27677C361.80039,220.50143 361.13947,218.0655 361.13947,214.9793C361.13947,211.85698 361.80624,209.34364 363.13977,207.45993C364.4616,205.57621 366.22209,204.63693 368.41541,204.63693C370.31041,204.63693 371.83696,205.2614 372.98917,206.50517C374.13554,207.74377 374.80231,209.29719 374.97192,211.16026"/>
<path d="M389.58811,216.9972L389.58811,205.13238L392.75817,205.13238L392.75817,216.9972C392.75817,218.31838 392.88685,219.28346 393.12664,219.89761C393.50682,220.97623 394.32565,221.52328 395.6007,221.52328C396.85819,221.52328 397.68288,220.97623 398.06304,219.89761C398.3087,219.28346 398.41982,218.31838 398.41982,216.9972L398.41982,205.13238L401.59573,205.13238L401.59573,216.9972C401.59573,219.0409 401.35008,220.63561 400.85878,221.78648C399.93467,223.87147 398.18587,224.91913 395.59485,224.91913C393.00966,224.91913 391.24918,223.88179 390.32506,221.78648C389.83377,220.64593 389.58811,219.0409 389.58811,216.9972"/>
<path d="M423.125 205.125L417.78125 224.4375L421.0625 224.4375L422.09375 220.46875L427.59375 220.46875L428.5625 224.4375L431.9375 224.4375L426.625 205.125L423.125 205.125z M424.84375 209.53125L426.71875 217.125L422.9375 217.125L424.84375 209.53125z"/>
<path d="M451.65574,220.30015L454.35204,205.13238L458.83808,205.13238L458.83808,224.42369L455.93122,224.42369L455.93122,211.38218C455.93122,211.00028 455.93704,210.47387 455.94297,209.7978C455.94879,209.12172 455.95472,208.60048 455.95472,208.23922L453.12389,224.42369L450.09422,224.42369L447.28678,208.23922C447.28678,208.60048 447.2926,209.12172 447.29853,209.7978C447.30435,210.47387 447.31028,211.00028 447.31028,211.38218L447.31028,224.42369L444.40342,224.42369L444.40342,205.13238L448.9421,205.13238L451.65595,220.30015"/>
</g>
</g>
</svg>

<svg version="1" xmlns="http://www.w3.org/2000/svg" width="820" height="440"><path fill="#c62139" d="M0 0h820v440H0z"/><path fill="#00297b" d="M20 20h780v400H20z"/><path fill="#c62139" d="M410.258 100S330 154.71 330 219.222c0 64.52 80.258 120.78 80.258 120.78S490 288.38 490 219.22C490 150.066 410.26 100 410.26 100"/><path fill="#66afeb" d="M477.923 240.562c1.76-6.864 2.76-13.99 2.76-21.34 0-61.93-70.425-107.863-70.425-107.863s-71.455 47.485-71.455 107.862c0 7.25 1.018 14.316 2.813 21.16l136.307.18"/><path fill="#007bde" d="M409.673 328.126s55.236-36.58 68.226-87.745H341.562c13.19 50.18 68.11 87.746 68.11 87.746"/><path fill="#9c8431" d="M480.338 226.452c-12.083 8.608-80.088 4.474-80.088 4.474l-3.8 9.636h81.467c.34-1.32.65-2.643.93-3.98l1.49-10.13"/><g fill="#fff100"><path d="M406.076 287.355c-1.035-7.21-32.84-14.93-49.72-14.295 5.27 8.267 11.24 15.833 17.247 22.558 8.575-9.202 32.812-5.884 32.473-8.263"/><path d="M470.454 260.55c-4.042.144-11.376.79-16.4 3.406-7.247 3.783-23.472 7.917-30.724 5.847-7.247-2.064-18.64 4.475-17.254 5.847 2.298 2.297 18.98-.34 18.98 14.456 0 12.386-19.325 6.885-26.923 12.045-4.58 3.103-7.773 6.473-9.586 8.64 11.86 10.978 21.15 17.336 21.15 17.336s22.02-14.585 41.52-38.2l9.17-12.17c3.697-5.414 7.125-11.158 10.067-17.206"/></g><g fill="#009270"><path d="M405.86 165.167s-11.008-6.45-26.022-3.36c-15.014 3.096-18.254 12.51-18.254 12.51l5.048-2.317.128 2.064 4.533-2.838.13 2.064 3.882-3.608.638 2.318 3.497-3.097.264 1.677 5.69-3.612v2.322l4.533-2.07-.386 2.2 8.546-1.544s-20.196 6.704-22.78 22.832l3.877-4.635.392 2.183 2.456-4.897.65 1.934 2.2-4.516.643 2.705 3.363-4.903.263 2.843 3.877-5.29v2.57l4.147-4.515-.13 3.365s4.014-3.365 5.3-3.365l-4.784 6.198 1.556.516s-3.37 2.71-3.626 3.226c-.258.51 2.205 0 2.205 0s-2.983 3.09-3.112 4c-.13.908 1.942 0 1.942 0s-2.72 3.478-3.106 4.778c-.393 1.29 1.42.253 1.42.253s-1.678 4.128-1.813 5.29c-.128 1.15 1.942-.264 1.942-.264l1.17 7.096 2.07-8.505 1.292 1.935v-6.07l1.164 1.028-.13-3.99 1.55 1.544-.77-4.903 1.678 1.926-.258-4.118 1.68 1.682v-5.424l1.555 1.41.258-3.727 1.813.897s.258-4.516 2.335-4.387c2.064.12 4.655 2.317 3.62 3.344l1.813-.5-.386 4.37 1.68-1.026-.258 3.225 1.42-.645-.514 4.124 1.685-1.017.122 5.017 1.936-1.41-.128 5.925 1.942-1.538v4.897l1.813-1.28 1.947 4.77-.392-7.097 1.428 1.156-2.597-5.027 1.947-.264-2.076-3.36 1.942.145-2.844-3.36 1.936-.38-4.275-3.103 2.333-.898-4.404-2.844 1.685-.646-3.1-3.225 3.235 1.29 1.03-2.064 3.883 3.102v-3.1l3.363 4.644.393-2.844 2.59 3.618.516-1.672 1.812 3.607.9-2.7 1.814 3.872.515-2.72 1.685 4.263 1.556-1.683.78 4.392 1.543-1.683 1.42 3.87 1.814-1.42 1.556 4.393s4.27-23.487-32.36-23.88l-10.874-2.053"/><path d="M389.032 144.26l2.065 2.57-1.035.785 3.497 1.935-.778 1.414 3.497 1.29-1.3 1.038 3.112 1.795-2.07.656 3.75 1.8-.516 1.673 3.235.78-1.42 1.155 3.748 2.98 4.276 2.962 2.977-1.027-1.17-5.688s-12.293-16.772-21.868-16.127"/><path d="M400.29 128.003l1.43 3.345-1.95.392 4.405 4.386-3.498.13 4.276 3.35-2.076.654 3.89 3.87-2.077 1.028 4.012 4-2.714 1.027 4.533 4.134-2.59.133 2.714 3.473-2.457.78s2.977 5.542 2.843 7.87l5.047.252s.778-14.966.135-16.9l-1.3.902.388-5.42-1.942 1.167-.38-6.45-1.948 2.058-.51-6.322-1.426 2.2-1.427-6.2-1.55 1.936-1.427-3.996-1.164 1.543-3.235-3.354"/><path d="M413.364 165.678c1.427-9.032 10.878-22.192 28.612-22.708l-4.018 2.064 2.333 1.032-4.66 1.683 2.328 1.408-5.562.392 2.842 1.935-4.135.516-3.24.646 2.328 2.19-4.66.51 2.982 1.553s-7.38 2.58-7.896 3.36c0 0 24.858-6.323 30.94 5.407l-4.796-2.064.392 2.198-3.363-2.45.514 1.806-3.492-1.806.515 2.188-3.627-2.064.778 1.946-4.66-2.2.777 2.065-4.013-1.29.392 2.188-4.018-.253.392 2.58-12.43-.262-1.554-2.58"/></g><g fill="#7b4800"><path d="M409.568 173.46l2.59-.17c-1.21 24.607-.075 59.887 3.276 72.95 5.69 22.185 22.284 30.732 26.232 32.858 2.24 1.197 1.38 6.188-3.112 5.847-4.48-.346-20.137-11.875-25.54-32.518-7.242-27.7-3.727-76.082-3.446-78.967"/><circle cx="413.755" cy="168.129" r="2.926"/><circle cx="409.094" cy="167.092" r="2.739"/><circle cx="409.094" cy="171.871" r="2.558"/><circle cx="412.586" cy="170.58" r="2.739"/></g><g fill="#7b4800"><path fill="#000" d="M384.64 257.164h2.924v-31.48h-2.924v31.48z"/><path d="M394.138 263.1s-1.2.21-3.105.453v-2.456h-1.942v2.668c-1.988.2-4.397.366-6.924.366-2.685 0-5.393-.195-7.627-.422v-2.544h-2.142v2.302c-1.848-.233-3.04-.434-3.04-.434s-.586 3.226 12.62 3.226c13.202 0 12.166-3.16 12.166-3.16"/><path d="M381.604 257.07c10.704 0 19.682-1.712 19.682-1.712s1.374 6.874-19.682 6.874c-21.055 0-19.33-5.842-19.33-5.842s8.633.68 19.33.68"/><path fill="#fff" d="M372.627 227.48s16.57 6.197 23.132 27.878c0 0-15.19-3.09-23.824.346h-4.83c0-.01 8.287-12.046 5.52-28.225"/></g><g fill="#c62139"><path d="M374.972 211.16h-3.07c-.24-1.32-.82-2.25-1.738-2.76-.514-.295-1.082-.434-1.708-.434-1.21 0-2.193.573-2.965 1.754-.777 1.167-1.163 2.942-1.163 5.29 0 2.38.42 4.052 1.258 5.053.836.975 1.79 1.47 2.86 1.47 1.047 0 1.9-.386 2.573-1.17.667-.775 1.076-1.802 1.24-3.077h-3.462v-3.215h6.223v10.354h-2.066l-.316-2.41c-.602.918-1.14 1.563-1.62 1.945-.825.655-1.836.98-3.04.98-1.978 0-3.604-.888-4.862-2.663-1.316-1.776-1.977-4.212-1.977-7.298 0-3.123.666-5.636 2-7.52 1.322-1.884 3.082-2.823 5.275-2.823 1.895 0 3.422.624 4.574 1.868 1.146 1.24 1.812 2.792 1.982 4.655M389.588 216.997v-11.865h3.17v11.865c0 1.32.13 2.286.37 2.9.38 1.08 1.198 1.626 2.473 1.626 1.258 0 2.083-.547 2.463-1.625.246-.615.357-1.58.357-2.9V205.13h3.176v11.865c0 2.044-.246 3.64-.737 4.79-.925 2.084-2.674 3.132-5.265 3.132-2.585 0-4.346-1.038-5.27-3.134-.49-1.14-.737-2.745-.737-4.79M423.125 205.125l-5.344 19.313h3.283l1.03-3.97h5.5l.97 3.97h3.375l-5.313-19.313h-3.5zm1.72 4.406l1.874 7.595h-3.783l1.907-7.594zM451.656 220.3l2.696-15.168h4.486v19.292h-2.907v-13.042c0-.382.007-.908.013-1.584.006-.676.012-1.198.012-1.56l-2.83 16.186h-3.03l-2.808-16.185c0 .36.006.882.012 1.558.004.676.01 1.202.01 1.584v13.042h-2.907v-19.292h4.54l2.713 15.168"/></g></svg>
